!!!COM: Scarlatti, Domenico
!!!CDT: 1685-1757
!!!OTL: Sonata in B-flat major, L.400, K.360
!!!SCT: K. 260
!!!SCT: L. 400
!!!OMD: ALLEGRO ([half]=120)
**kern	**kern	**dynam
*staff2	*staff1	*staff1/2
*Icemba	*Icemba	*
*I"L.400 (K.360)	*I"L.400 (K.360)	*
*>[A,A,B,B]	*>[A,A,B,B]	*>[A,A,B,B]
*>norep[A,B]	*>norep[A,B]	*>norep[A,B]
*>A	*>A	*>A
*clefF4	*clefG2	*
*k[b-e-]	*k[b-e-]	*
*M2/2	*M2/2	*
*met(c|)	*met(c|)	*
*MM240	*MM240	*
=1-	=1-	=1-
1r	2bb-^	f
.	2ff^	.
=2	=2	=2
1r	2dd^	.
.	(4b-/	.
.	8aL	.
.	8gJ	.
=3	=3	=3
1r	4f)	.
.	(8ccL	p
.	8aJ	.
.	4f)	<
.	(8ddL	.
.	8b-J	.
=4	=4	=4
1r	4f)	.
.	(8ffL	.
.	8ee-J	.
.	4dd	.
.	8ccL	.
.	8b-J	.
!!LO:LB:g=z
=5	=5	=5
2f^	4a	f
.	8gL	.
.	8fJ	.
2d^	4b-	.
.	8ccL	.
.	8ddJ)	.
=6	=6	=6
2B-^	(4dd	.
.	8ccL	.
.	8b-J	.
.	(a8qq	.
(4E-	2at)	.
8DL<	.	.
8CJ	.	.
.	g16qLL	.
.	a16qJJ	.
=7	=7	=7
4BB-')	2b-)	.
!	!	!LO:DY:a=2
(8FL	.	p
!	!	!LO:HP:a=2
8DJ	.	<
4BB-')	2b-	.
(8GL	.	.
8E-J	.	.
=8	=8	=8
4BB-')	2b-	.
(8GL	.	.
8FJ	.	.
4E-	4b-'	.
8DL<	4cc'	.
8CJ	.	.
!!LO:LB:g=z
=9	=9	=9
2BB-)	4dd'	f
.	(8dddL	.
.	8bb-J	.
*clefG2	*	*
(<4B-	4bb-')	.
4c	(8dddL	.
.	8bb-J	.
=10	=10	=10
4d	4bb-')	.
4e-	(8aaL	.
.	8ggJ	.
4f	8ffL	.
.	8ee-	.
4a	8dd	.
.	8ccJ	.
=11	=11	=11
2b-)	4dd')	.
.	(8dddL	p
.	8bb-J	.
(<4B-	4bb-')	.
4c	(8dddL	.
.	8bb-J	.
=12	=12	=12
4d	4bb-')	.
4e-	(8aaL	.
.	8ggJ	.
4f	8ffL	.
.	8ee-	.
4a	8dd	.
.	8ccJ	.
!!LO:LB:g=z
=13	=13	=13
4b-')	4dd')	.
(8ddL	(4ff	p
8b-J	.	.
4b-')	4dd')	.
(8ddL	(4ff	.
8b-J	.	.
=14	=14	=14
4b-')	4dd')	.
(8aL	(2ff^	f
8gJ	.	.
8fL	.	.
8e-	.	.
8d	4aa	.
8cJ	.	.
=15	=15	=15
4d')	4bb-')	.
(8ddL	(4ff	p
8b-J	.	.
4b-')	4dd')	.
(8ddL	(4ff	.
8b-J	.	.
=16	=16	=16
4b-')	4dd')	.
(8aL	(2ff^	f
8gJ	.	.
8fL	.	.
8e-	.	.
8d	4ee- 4aa	.
8cJ	.	.
!!LO:LB:g=z
=17	=17	=17
2.B-)	4dd 4bb-)	.
.	(8dddL	.
.	8bb-J	.
.	4bb-')	.
(4c	(8dddL	.
.	8bb-J	.
=18	=18	=18
2d	4bb-')	.
.	(8dddL	.
.	8bb-J)	.
2en	(4bb-M	.
.	8aaL	.
.	8ggJ	.
=19	=19	=19
4f')	4aa')	.
(8aL	(8cccL	.
8fJ	8aaJ	.
4f')	4aa')	.
(8aL	(8cccL	.
8fJ	8aaJ)	.
=20	=20	=20
4f')	(4aam	.
*clefF4	*	*
(8enL	8ggL	.
8dJ	8ffJ	.
8cL	4gg')	.
8B-	.	.
8A	4een'	.
8GJ	.	.
!!LO:LB:g=z
=21	=21	=21
4A')	4ff'	.
*clefG2	*	*
(8aL	(8cccL	.
8fJ	8aaJ	.
4f')	4aa')	.
(8aL	(8cccL	.
8fJ	8aaJ	.
=22	=22	=22
4f')	4aa')	.
*clefF4	*	*
(8enL	(8ggL	.
8dJ	8ffJ	.
8cL	4gg	.
8B-	.	.
8A	8aaL	.
8GJ	8bb-J	.
=23	=23	=23
2.F)	4aa')	.
.	(8cccL	.
.	8aaJ	.
.	4aa')	.
(4G	(8cccL	.
.	8aaJ	.
=24	=24	=24
2A	4aa')	.
.	(8ggL	.
.	8ffJ	.
2Bn	8ggL	.
.	8ff	.
.	8een	.
.	8ddJ	.
!!LO:LB:g=z
=25	=25	=25
2.c)	4een')	.
.	(8ggL	p
.	8eeJ	<
.	4ee')	.
(4En	(8ggL	.
.	8eeJ	.
=26	=26	=26
2F	4aa')	.
.	(8ggL	.
.	8ffJ	.
2G	8eenL	.
.	8dd	.
.	8cc	.
.	8bnJ	[
=27	=27	=27
2C)	4cc')	f
.	(8cccL>	.
.	8ccJ)	.
2r	4cc'	.
.	(8ccL	.
.	8cJ)	.
=28	=28	=28
4r	4c'\	.
(8cL>	4r	.
8CJ)	.	.
4C'\	4r	.
(8CL	4r	.
8CCJ)	.	.
=29	=29	=29
2CC^\	2r	.
4r;	4r;	.
4r	(8cccL	p
.	8ggJ	.
*clefG2	*	*
!!LO:LB:g=z
=30	=30	=30
(>2en 2cc	4gg')	.
.	8gg'L	.
.	8gg'J	.
2f 2dd-	4gg'	.
.	(8aa-L	.
.	8ffJ	.
=31	=31	=31
2en 2cc)	4ff	>
.	4gg)	]
2r	4r	.
.	(8cccL	.
.	8ggJ	.
=32	=32	=32
(>2en 2cc	4gg')	.
.	8gg'L	.
.	8gg'J	.
2f 2dd-	4gg'	.
.	(8aa-L	.
.	8ffJ	.
=33	=33	=33
2en 2cc)	4ff	>
.	4gg)	]
*clefF4	*	*
(2c	4r	.
.	8gg'L	<
.	8gg'J	.
!!LO:LB:g=z
=34	=34	=34
*	*^	*
2B-)	4gg'	2dd-	.
.	8gg'L	.	.
.	8gg'J	.	.
(2en	(4gg	[2cc	.
.	8aa-L	.	.
.	8bb-J	.	.
=35	=35	=35	=35
2f)	8aa-L	2cc]	.
.	8gg	.	.
.	8ff	.	.
.	8eenJ	.	.
(2A-	[2ff)	(4cc	f
.	.	8b-L	.
.	.	8a-J	.
=36	=36	=36	=36
2B-	2ff]	4g	.
.	.	8a-L	.
.	.	8b-J	.
2c	2een	8a-L	.
.	.	8g	.
.	.	8f	.
.	.	8enJ)	.
=37	=37	=37	=37
2FF)	(4ff	2f	.
.	4gg)	.	.
(2c^	4r	2ryy	.
.	8gg'L	.	p
.	8gg'J	.	.
!!LO:LB:g=z
=38	=38	=38	=38
2B-)	4gg'	2dd-	<
.	8gg'L	.	.
.	8gg'J	.	.
(2en	(4gg	[2cc	.
.	8aa-L	.	.
.	8bb-J	.	.
=39	=39	=39	=39
2f)	8aa-L	2cc]	.
.	8gg	.	.
.	8ff	.	.
.	8eenJ	.	.
(2A-	[2ff)	(4cc	f
.	.	8b-L	.
.	.	8a-J	.
=40	=40	=40	=40
2B-	2ff]	4g	.
.	.	8a-L	.
.	.	8b-J	.
2c	2een	8a-L	.
.	.	8g	.
.	.	8f	.
.	.	8enJ)	.
*	*v	*v	*
=41	=41	=41
2F 2f)	4ff'	f
.	(8aanL	.
.	8ccJ	.
(<2A 2f	4cc')	.
.	(8aaL	.
.	8ccJ	.
!!LO:LB:g=z
=42	=42	=42
2G) 2f	4cc')	.
.	(8ddL	.
.	8b-J	.
(<2G 2en	4b-')	.
.	(8ggL	.
.	8b-J	.
=43	=43	=43
2F) 2f	4b-')	.
.	(8ccL	.
.	8aJ	.
(<2A 2f	4a'\)	.
.	(8ffL	.
.	8ccJ	.
=44	=44	=44
2B- 2f	8ccL<	.
.	8a	.
.	8b-	.
.	8gJ	.
2c	4f')	.
.	4en'm	.
=45	=45	=45
2F)	4f'	.
.	(8gg#L	.
.	8aaJ	.
(<2A [2f	4a'\)	.
.	(8ccc#L	.
.	8dddJ	.
!!LO:LB:g=z
=46	=46	=46
*^	*	*
2f]	2.B-	4dd')	.
.	.	(8eenL	.
.	.	8ffJ	.
2ryy	.	[2f)	.
.	8B-L	.	.
.	8cJ)	.	.
*v	*v	*	*
=47	=47	=47
(1CC	8fL]	.
.	(8en	.
.	8f	.
.	8gJ)	.
.	(4.gMM	.
.	8f)	.
=48	=48	=48
2FF)	4f'	.
.	(8gg#L	p
.	8aaJ	.
(<2A [2f	4a')	.
.	(8ccc#L	.
.	8dddJ	.
=49	=49	=49
*^	*	*
2f]	2.B-	4dd')	.
.	.	(8eenL	.
.	.	8ffJ	.
2ryy	.	[2f)	.
.	8B-L	.	.
.	8cJ)	.	.
*v	*v	*	*
!!LO:LB:g=z
=50	=50	=50
(1CC	8fL]	.
.	(8en	.
.	8f	.
.	8gJ)	.
.	(4.gMM	.
.	8f)	.
=51	=51	=51
2.FF)	4f'	.
*	*^	*
.	2ryy	(<8aaL	<
.	.	8ffJ	.
.	.	8ccL	.
.	.	8a	.
(4CC	(4een	8b-	.
.	.	8gJ	.
=52	=52	=52	=52
2.FF)	4ff')	2a)	.
.	(<8aaL	.	.
.	8ffJ	.	.
.	4ryy	8ccL	.
.	.	8a	.
(4CC	(4een	8b-	.
.	.	8gJ	.
=53	=53	=53	=53
2.FF)	4ff')	2a)	.
.	(>8aaL	.	.
.	8ffJ	.	.
.	4ryy	8ccL	.
.	.	8a	.
(4CC	(4een	8b-	.
.	.	8gJ	.
*	*v	*v	*
=54	=54	=54
*>A1	*>A1	*>A1
1FF)	1a 1ff))	f
!!LO:LB:g=z
=55:|!|:	=55:|!|:	=55:|!|:
*>B	*>B	*>B
1FF	2a@ 2ff	f
.	4r	.
.	(8ccL	p
.	8aJ	.
=56	=56	=56
*^	*	*
(2f	1F	4a')	.
.	.	(8ccL	.
.	.	8aJ	.
2en	.	4a')	.
.	.	(8ccL	.
.	.	8aJ	.
=57	=57	=57	=57
2d)	1G	4cc	.
.	.	4bn)	.
2g	.	4r	.
.	.	(8ddL	.
.	.	8bJ	.
=58	=58	=58	=58
(2g	1G	4bn')	.
.	.	(8ddL	.
.	.	8bJ	.
2f	.	4b')	.
.	.	(8ddL	.
.	.	8bJ	.
!!LO:LB:g=z
=59	=59	=59	=59
2en)	1A	4dd	.
.	.	4cc#)	.
2a	.	4r	.
.	.	(8eenL	<
.	.	8cc#J	.
=60	=60	=60	=60
(2a	1A	4cc#')	.
.	.	(8eenL	.
.	.	8cc#J	.
2g	.	4cc#')	.
.	.	(8eeL	.
.	.	8cc#J)	.
*v	*v	*	*
=61	=61	=61
2B- 2f)	(4cc#	.
.	4dd)	.
(<2F 2d	4r	mf
.	(8dddL	.
.	8cccnJ	.
=62	=62	=62
*	*^	*
2G) 2d	4bb-	2ryy	.
.	8aaL	.	.
.	8ggJ	.	.
(2G	4ff	2b-	.
.	8eenL	.	.
.	8ddJ	.	.
*	*v	*v	*
!!LO:LB:g=z
=63	=63	=63
4A)	2cc#)	.
(8aL	.	.
8fJ	.	.
4f')	(2aa	.
(8aL	.	.
8fJ	.	.
=64	=64	=64
4f')	2dd	.
(8enL	.	.
8dJ	.	.
8c#L	2een	.
8Bn	.	.
8A	.	.
8GJ	.	.
=65	=65	=65
4F')	2a)	<
(8fL	.	.
8dJ	.	.
4d')	(2a 2ff	.
(8fL	.	.
8dJ	.	.
=66	=66	=66
4d')	2aa	.
(8c#L	.	.
8B-J	.	.
8AL	2cc#	.
8G	.	.
8F	.	.
8EnJ	.	.
!!LO:LB:g=z
=67	=67	=67
2F)	4dd')	f
.	(8aaL	mf
.	8ddJ	.
(<2F 2d	4dd')	.
.	(8aaL	.
.	8ddJ	.
=68	=68	=68
2F# 2d)	4dd')	.
.	(8aaL	.
.	8ddJ	.
(<2D 2d	4cc	.
.	8b-L<M	.
.	8aJ)	.
=69	=69	=69
2G) 2d	4b-'	.
.	(8ggL	.
.	8b-J	.
(<2Fn 2d	4b-')	.
.	(8ggL	.
.	8b-J	.
=70	=70	=70
2En) 2c	4b-')	.
.	(8ggL	.
.	8ccJ	.
(<2C 2c	4b-	.
.	8aL<m	.
.	8gJ)	.
!!LO:LB:g=z
=71	=71	=71
2F) 2c	4a'	.
.	(8cccL	f
.	8ffJ	.
(2F 2c	4ff')	.
.	(8cccL	.
.	8ffJ	.
=72	=72	=72
2A) 2f	4ff')	.
.	(8cccL	.
.	8ffJ	.
(<2A 2f	4ee-X	.
.	8ddLm	.
.	8ccJ)	.
=73	=73	=73
*^	*	*
2f	2.B-	4dd'	.
.	.	(8dddL	p
.	.	8bb-J	.
2ryy	.	4bb-')	.
.	4c)	(8dddL	.
.	.	8bb-J	.
*v	*v	*	*
=74	=74	=74
4d'	4bb-')	.
(4e-	(8aaL	<
.	8ggJ	.
4f	8ffL	.
.	8ee-X	.
4A	8dd	.
.	8ccJ	.
!!LO:LB:g=z
=75	=75	=75
4B-')	4dd')	f
8dL	(8ffL	.
8B-J	8ddJ	.
4B-'	4dd')	.
(8dL	(8ffL	.
8B-J	8ddJ	.
=76	=76	=76
4B-')	4dd')	.
(8AL	2f (2ff	.
8GJ	.	.
8FL	.	.
8E-	.	.
8D	4a 4ee-	.
8CJ	.	.
=77	=77	=77
2.BB-)	4dd')	.
.	(8dddL	p
.	8bb-J	.
.	4bb-')	.
(4C	(8dddL	.
.	8bb-J)	.
=78	=78	=78
2D	(8bb-L	<
.	8aa	.
.	8gg	.
.	8ffJ	.
2E-	8ee-L	.
.	8dd	.
.	8cc	.
.	8b-J	.
!!LO:LB:g=z
=79	=79	=79
2F)	4ff')	f
.	(8fffL>	.
.	8ffJ)	.
2r	4ff'	.
.	(8ffL>	.
.	8fJ)	.
=80	=80	=80
2r	4f'\	.
.	(8fL	.
.	8F<J)	.
4F'	2r	.
(8FL	.	.
8FFJ)	.	.
=81	=81	=81
2FF^\	2r	.
4r;	4r;	.
4r	(8ffL	p
.	8ccJ	.
=82	=82	=82
2A (2f	4cc')	.
.	8cc'L	.
.	8cc'J	.
2B- 2g-	4cc'	.
.	(8dd-L	.
.	8b-J)	.
=83	=83	=83
2A 2f)	(4b-	>
.	4cc)	]
2r	4r	.
.	(8ffL	.
.	8ccJ	.
!!LO:LB:g=z
=84	=84	=84
2A (2f	4cc')	.
.	8cc'L	.
.	8cc'J	.
2B- 2g-	4cc'	.
.	(8dd-L	.
.	8b-J)	.
=85	=85	=85
2A 2f)	4b-	>
.	4cc	]
(2F	4r	.
.	8ccc'L	<
.	8ccc'J	.
=86	=86	=86
*	*^	*
2E-)	4ccc'	2gg-	.
.	8ccc'L	.	.
.	8ccc'J	.	.
(2An	(4ccc	[2ff	.
.	8ddd-L	.	.
.	8eee-J	.	.
=87	=87	=87	=87
2B-)	8ddd-L	2ff]	.
.	8ccc	.	.
.	8bb-	.	.
.	8aaJ	.	.
(2D-	[2bb-)	(4ff	f
.	.	8ee-L	.
.	.	8dd-J	.
!!LO:LB:g=z
=88	=88	=88	=88
2E-	2bb-]	4cc	.
.	.	8dd-L	.
.	.	8ee-J	.
2F	2aa	8dd-L	.
.	.	8cc	.
.	.	8b-	.
.	.	8aJ)	.
=89	=89	=89	=89
2BB-)	(4bb-	2b-	>
.	4ccc)	.	]
(2F^	4r	2ryy	.
.	8ccc'L	.	p
.	8ccc'J	.	.
=90	=90	=90	=90
2E-)	4ccc	2gg-	<
.	8ccc'L	.	.
.	8ccc'J	.	.
(2An	(4ccc	2ff	.
.	8ddd-L	.	.
.	8eee-J	.	.
=91	=91	=91	=91
2B-)	8ddd-L	2ff	.
.	8ccc	.	.
.	8bb-	.	.
.	8aaJ	.	.
(2D-	[2bb-)	(4ff	f
.	.	8ee-L	.
.	.	8dd-J	.
!!LO:LB:g=z
=92	=92	=92	=92
2E-	2bb-]	4cc	.
.	.	8dd-L	.
.	.	8ee-J	.
2F	2aa	8dd-L	.
.	.	8cc	.
.	.	8b-	.
.	.	8aJ	.
=93	=93	=93	=93
2BB-)	4bb-	2b-)	f
.	(8bb-L	.	.
.	8ffJ	.	.
*	*v	*v	*
(2dn	4ff')	.
.	(8dddnL	.
.	8ffJ	.
=94	=94	=94
2c)	4ff')	.
.	(8ggL	.
.	8ee-J	.
(<2F 2f	4ee-')	.
.	(8cccL	.
.	8ee-J	.
=95	=95	=95
2B-) 2f	4ee-')	.
.	(8ffL	.
.	8ddJ	.
(<2D 2B-	4dd')	.
.	(8bb-L	.
.	8ffJ	.
!!LO:LB:g=z
=96	=96	=96
2E-	8ggL	.
.	8dd	.
.	8ee-	.
.	8ccJ	.
2F	4b-')	.
.	4a'\m	.
=97	=97	=97
4BB-')	2b-	.
(8aL	.	.
8b-J	.	.
4B-')	(2ff 2ddd	.
(8enL	.	.
8fJ	.	.
=98	=98	=98
4F')	2ee- 2ccc	.
(8AL	.	.
8B-J	.	.
4BB-')	2dd 2bb-	.
(8EnL	.	.
8FJ	.	.
=99	=99	=99
*	*^	*
2.FF)	8cccL	2cc	.
.	8bb-	.	.
.	8aa	.	.
.	8ggJ	.	.
*	*v	*v	*
.	8ffL	.
.	8ee-	.
(4A	8dd	.
.	8ccJ	.
!!LO:LB:g=z
=100	=100	=100
4B-	8ddL	.
.	8ff	.
4E-	8ee-	.
.	8ccJ	.
4F')	4b-' 4dd')	.
4FF'	4a' 4cc'M	.
=101	=101	=101
4BB-'	2b-	.
(8aL	.	p
8b-J	.	.
4B-')	2ff (2ddd	<
(8enL	.	.
8fJ	.	.
=102	=102	=102
4F')	2ee- 2ccc	.
(8AL	.	.
8B-J	.	.
4BB-')	2dd 2bb-	.
(8EnL	.	.
8FJ	.	.
=103	=103	=103
*	*^	*
2.FF)	8cccL	2cc	.
.	8bb-	.	.
.	8aa	.	.
.	8ggJ	.	.
*	*v	*v	*
.	8ffL	.
.	8ee-	.
(4A	8dd	.
.	8ccJ	.
!!LO:LB:g=z
=104	=104	=104
4B-	8ddL	.
.	8ff	.
4E-	8ee-	.
.	8ccJ	.
4F')	4b-' 4dd')	.
4FF'	4a' 4cc'M	.
=105	=105	=105
2.BB-	4b-'	f
.	(8ffL	p
.	8ddJ	.
.	8b-L	<
.	8f	.
*	*^	*
(4FF	8cc	(4e-	.
.	8aJ	.	.
=106	=106	=106	=106
2.BB-)	4b-')	2d)	.
.	(8ffL<	.	.
.	8ddJ	.	.
.	8b-L	4ryy	.
.	8f	.	.
(4FF	8cc	(4e-	.
.	8aJ	.	.
=107	=107	=107	=107
2.BB-)	4b-')	2d)	.
.	(8ffL<	.	.
.	8ddJ	.	.
.	8b-L	4ryy	.
.	8f	.	.
(4FF	8cc	(4e-	.
.	8aJ	.	.
*	*v	*v	*
=108	=108	=108
1BB-)	1d 1b-))	f
==:|!	==:|!	==:|!
*-	*-	*-
!!!RDF**kern: > = above
!!!RDF**kern: < = below
!!!RDF**kern: @ = marked note, color="silver", optional note
!!!PTL: Domenico Scarlatti: Opere complete per clavicembalo, vol. 1
!!!PED: Longo, Alessandro
!!!PPR: Ricordi
!!!PPP: Milan
!!!PDT: 1906-1913
!!!ENC: Craig Stuart Sapp
!!!END: 2006/08/12
!!!EED: Craig Stuart Sapp
!!!EEV: 2021/02/11
